assets/line-arrow.svg

<svg width="24" height="28" viewBox="0 0 24 28" fill="none" xmlns="http://www.w3.org/2000/svg">
<path fill-rule="evenodd" clip-rule="evenodd" d="M9.1625 17.6041C8.83819 17.9796 8.83819 18.536 9.1625 18.9115L9.29432 19.0641C9.69317 19.5258 10.409 19.5258 10.8078 19.0641L14.8372 14.3994C15.1615 14.0239 15.1615 13.4675 14.8372 13.092L10.8078 8.42728C10.409 7.96553 9.69317 7.96553 9.29432 8.42728L9.1625 8.57988C8.83819 8.95533 8.83819 9.5118 9.1625 9.88726L12.4954 13.7457L9.1625 17.6041Z" fill="#FF3E79"/>
</svg>

<svg width="24" height="28" fill="none" xmlns="http://www.w3.org/2000/svg"><path fill-rule="evenodd" clip-rule="evenodd" d="M9.162 17.604a1 1 0 0 0 0 1.308l.132.152a1 1 0 0 0 1.514 0l4.03-4.665a1 1 0 0 0 0-1.307l-4.03-4.665a1 1 0 0 0-1.514 0l-.132.153a1 1 0 0 0 0 1.307l3.333 3.859-3.332 3.858Z" fill="#FF3E79"/></svg>
